svg/Frame-1261156454.svg

<svg width="49" height="74" viewBox="0 0 49 74" fill="none" xmlns="http://www.w3.org/2000/svg"><rect width="49" height="74" fill="#DADADA"/><mask id="path-2-inside-1_2483_15959" fill="white"><path d="M844.699 91.2002L-595.301 91.2001L-595.301 -17.7999L844.699 -17.7998L844.699 91.2002Z"/></mask><path d="M844.699 91.2002L-595.301 91.2001L-595.301 -17.7999L844.699 -17.7998L844.699 91.2002Z" fill="white"/><path d="M5.63522 62.7562V63.9442H7.59122V59.4442H8.39522V63.9442H10.3392V62.7562H9.07922V62.0362H10.3392V60.7282H9.01922V59.9842H11.1192V64.6882H8.39522V65.7442H11.0832V66.4762C10.6512 67.3522 9.93122 68.0962 8.94722 68.7202C9.73922 69.0802 10.6632 69.3682 11.7192 69.5842L11.4072 70.3882C10.0992 70.1122 8.98322 69.7162 8.05922 69.2122C7.05122 69.6922 5.85122 70.1002 4.44722 70.4122L4.01522 69.6442C5.26322 69.4042 6.34322 69.0922 7.24322 68.7082C6.37922 68.0962 5.73122 67.3642 5.27522 66.5242H4.77122V65.7442H7.59122V64.6882H4.84322V60.3562C5.46722 60.1882 6.06722 59.9362 6.63122 59.6002L7.12322 60.2362C6.71522 60.4522 6.21122 60.6682 5.63522 60.8842V62.0362H6.94322V62.7562H5.63522ZM6.16322 66.5242C6.63122 67.2082 7.27922 67.7962 8.10722 68.2882C9.00722 67.7842 9.69122 67.1962 10.1472 66.5242H6.16322ZM2.17922 70.2922H1.05122L0.871219 69.4762C1.23122 69.5122 1.56722 69.5362 1.87922 69.5362C2.16722 69.5362 2.32322 69.3682 2.32322 69.0442V66.1282C1.86722 66.2962 1.42322 66.4522 0.967219 66.5962L0.775219 65.7802C1.30322 65.6362 1.81922 65.4802 2.32322 65.2882V62.5282H0.991219V61.7002H2.32322V59.4562H3.16322V61.7002H4.27922V62.5282H3.16322V64.9522C3.57122 64.7722 3.97922 64.5682 4.37522 64.3522V65.1922C3.97922 65.3962 3.57122 65.5882 3.16322 65.7802V69.2602C3.16322 69.9442 2.82722 70.2922 2.17922 70.2922ZM13.7112 60.3442H17.7552V59.3962H18.6432V60.3442H22.6872V61.1362H18.6432V62.1802H23.1792V64.3762H22.3392V62.9362H17.7552L18.4152 63.2602C17.6952 63.8362 16.9512 64.3282 16.1712 64.7482C17.2752 64.7242 18.1752 64.7002 18.8472 64.6522C19.2672 64.3642 19.6992 64.0642 20.1312 63.7522L20.8272 64.2202C19.4112 65.2762 17.8992 66.0802 16.2672 66.6562C17.8272 66.6082 19.3752 66.5242 20.9352 66.4162C20.6712 66.1282 20.3952 65.8522 20.1072 65.5642L20.7312 65.1682C21.6072 66.0202 22.2792 66.7642 22.7472 67.4122L22.0992 67.8802C21.9072 67.5922 21.6912 67.3042 21.4512 67.0162C20.4792 67.0762 19.5672 67.1362 18.7032 67.1842V69.4762C18.7032 70.0762 18.3672 70.3882 17.7192 70.3882H16.6272L16.4472 69.5842C16.7832 69.6202 17.1192 69.6442 17.4312 69.6442C17.6952 69.6442 17.8392 69.5122 17.8392 69.2722V67.2202C16.5192 67.2802 15.3072 67.3282 14.2032 67.3522L14.0352 66.5722C14.2872 66.5842 14.5392 66.5962 14.7792 66.5962C15.7632 66.3202 16.7712 65.8882 17.8272 65.2882C17.0112 65.3122 16.0872 65.3482 15.0432 65.3722L14.8752 64.7122C15.0552 64.6762 15.2352 64.6042 15.4152 64.5082C16.1952 64.0642 16.9392 63.5362 17.6352 62.9362H14.0592V64.3642H13.2192V62.1802H17.7552V61.1362H13.7112V60.3442ZM19.9752 67.8202C21.2232 68.2762 22.3512 68.8282 23.3712 69.4762L22.9272 70.1722C21.8232 69.4522 20.6952 68.8762 19.5432 68.4562L19.9752 67.8202ZM16.1952 67.7962L16.6992 68.3602C15.7992 69.0802 14.6712 69.6682 13.3152 70.1362L12.9552 69.3682C14.2632 68.9722 15.3432 68.4442 16.1952 67.7962ZM29.5512 60.1162V67.4242C29.8272 67.3402 30.0912 67.2562 30.3552 67.1722V67.9882C28.7952 68.4922 26.9832 68.9602 24.9192 69.3922L24.6792 68.5522C24.9672 68.4922 25.2552 68.4322 25.5432 68.3842V60.1162H29.5512ZM26.3952 68.2042C27.2112 68.0242 27.9792 67.8442 28.7112 67.6522V65.9962H26.3952V68.2042ZM26.3952 65.2162H28.7112V63.4042H26.3952V65.2162ZM26.3952 62.6122H28.7112V60.9082H26.3952V62.6122ZM31.7352 59.4562H32.5992V61.8562H35.2512C35.2512 65.6002 35.1912 67.9042 35.0712 68.7922C34.9512 69.7762 34.3512 70.2802 33.2712 70.2802C33.0792 70.2802 32.7432 70.2682 32.2632 70.2442L32.0592 69.4762C32.4792 69.5002 32.8392 69.5242 33.1512 69.5242C33.7872 69.5242 34.1592 69.1642 34.2552 68.4682C34.3272 67.8442 34.3752 65.9122 34.3992 62.6962H32.5992V62.8642C32.5632 66.3202 31.7112 68.8522 30.0432 70.4482L29.3952 69.8842C30.9312 68.4322 31.7112 66.0922 31.7352 62.8642V62.6962H30.2472V61.8562H31.7352V59.4562ZM46.2312 59.5042L46.6512 60.2362C45.5592 60.5242 44.2992 60.7522 42.8592 60.8962V62.9242H46.6872V63.7642H42.8592V65.7322H47.5872V66.5602H42.8592V69.2122C42.8592 69.9322 42.4752 70.3042 41.7312 70.3042H39.8712L39.6792 69.4642C40.2912 69.4882 40.8792 69.5122 41.4312 69.5122C41.7912 69.5122 41.9832 69.3322 41.9832 68.9962V66.5602H36.8232V65.7322H41.9832V63.7642H37.8192V62.9242H41.9832V60.9682C40.7112 61.0642 39.3312 61.1242 37.8432 61.1242L37.5792 60.3442C41.0592 60.3442 43.9392 60.0562 46.2312 59.5042Z" fill="black"/><rect x="0.0992187" y="0.100195" width="48.2" height="48.2" rx="10.1" fill="#F6F6F6"/><rect x="0.0992187" y="0.100195" width="48.2" height="48.2" rx="10.1" stroke="#D4D4D8" stroke-width="0.2"/><g filter="url(#filter0_iii_2483_15959)"><path d="M32.5603 34.143L29.8215 31.3428C30.4892 30.3154 30.8793 29.0879 30.8793 27.7681C30.8793 24.1539 27.9677 21.2246 24.3752 21.2246C20.7828 21.2246 17.8711 24.1539 17.8711 27.7681C17.8711 31.3823 20.7828 34.3116 24.3752 34.3116C25.6189 34.3116 26.7815 33.9586 27.7713 33.3501L30.5206 36.1609C30.8008 36.448 31.17 36.5903 31.5418 36.5903C31.9136 36.5903 32.2671 36.4533 32.5446 36.1767C33.1076 35.6182 33.1154 34.7068 32.5603 34.1404V34.143ZM24.3752 32.6573C21.6966 32.6573 19.5181 30.4656 19.5181 27.7707C19.5181 25.0759 21.6966 22.8842 24.3752 22.8842C27.0538 22.8842 29.2324 25.0759 29.2324 27.7707C29.2324 30.4656 27.0538 32.6573 24.3752 32.6573Z" fill="#D9D9D9"/></g><g filter="url(#filter1_iii_2483_15959)"><path d="M20.3867 27.8475C20.3867 25.6316 22.0586 23.7412 24.2281 23.7412C24.5939 23.7412 24.8904 24.0377 24.8904 24.4035C24.8904 24.7693 24.5939 25.0658 24.2281 25.0658C22.888 25.0658 21.7113 26.2613 21.7113 27.8475C21.7113 28.2133 21.4148 28.5099 21.049 28.5099C20.6832 28.5099 20.3867 28.2133 20.3867 27.8475Z" fill="#D9D9D9"/></g><g filter="url(#filter2_dii_2483_15959)"><path d="M39.5752 25.0018C39.5752 26.2783 39.2191 27.5147 38.4508 28.547C37.5265 29.7834 36.1021 30.6437 34.6176 31.0198C33.8373 31.2158 33.0731 31.1998 32.2768 31.1998C31.8647 31.1998 31.5926 30.7837 31.7407 30.3996C32.5929 28.1389 32.3329 25.402 30.9684 23.3773C28.1355 18.6718 20.6531 18.6798 17.8202 23.3773C16.4558 25.394 16.1997 28.1429 17.048 30.3996C17.192 30.7877 16.9239 31.1998 16.5118 31.1998H14.9353C8.58393 31.2649 7.1044 22.5498 12.54 20.3C12.9803 20.1178 13.2828 19.6903 13.3437 19.2176C13.6803 16.6052 16.4367 14.7973 19.0004 15.362C19.4943 15.4708 20.0313 15.3051 20.3437 14.9074C24.1272 10.0907 32.9788 12.0332 34.1661 18.1135C34.2544 18.5655 34.5963 18.9349 35.0388 19.0625C37.6627 19.8186 39.5752 22.1916 39.5752 25.0018Z" fill="#919191"/></g><defs><filter id="filter0_iii_2483_15959" x="17.4023" y="20.7559" width="16.0391" height="16.3032" filterUnits="userSpaceOnUse" color-interpolation-filters="sRGB"><feFlood flood-opacity="0" result="BackgroundImageFix"/><feBlend mode="normal" in="SourceGraphic" in2="BackgroundImageFix" result="shape"/><feColorMatrix in="SourceAlpha" type="matrix" values="0 0 0 0 0 0 0 0 0 0 0 0 0 0 0 0 0 0 127 0" result="hardAlpha"/><feOffset dx="0.46875" dy="0.46875"/><feGaussianBlur stdDeviation="0.703125"/><feComposite in2="hardAlpha" operator="arithmetic" k2="-1" k3="1"/><feColorMatrix type="matrix" values="0 0 0 0 0.121569 0 0 0 0 0.121569 0 0 0 0 0.117647 0 0 0 0.05 0"/><feBlend mode="normal" in2="shape" result="effect1_innerShadow_2483_15959"/><feColorMatrix in="SourceAlpha" type="matrix" values="0 0 0 0 0 0 0 0 0 0 0 0 0 0 0 0 0 0 127 0" result="hardAlpha"/><feOffset dx="-0.46875" dy="-0.46875"/><feGaussianBlur stdDeviation="0.703125"/><feComposite in2="hardAlpha" operator="arithmetic" k2="-1" k3="1"/><feColorMatrix type="matrix" values="0 0 0 0 0.121569 0 0 0 0 0.121569 0 0 0 0 0.117647 0 0 0 0.05 0"/><feBlend mode="normal" in2="effect1_innerShadow_2483_15959" result="effect2_innerShadow_2483_15959"/><feColorMatrix in="SourceAlpha" type="matrix" values="0 0 0 0 0 0 0 0 0 0 0 0 0 0 0 0 0 0 127 0" result="hardAlpha"/><feOffset dx="0.46875" dy="0.46875"/><feGaussianBlur stdDeviation="0.9375"/><feComposite in2="hardAlpha" operator="arithmetic" k2="-1" k3="1"/><feColorMatrix type="matrix" values="0 0 0 0 0.121569 0 0 0 0 0.121569 0 0 0 0 0.117647 0 0 0 0.05 0"/><feBlend mode="normal" in2="effect2_innerShadow_2483_15959" result="effect3_innerShadow_2483_15959"/></filter><filter id="filter1_iii_2483_15959" x="19.918" y="23.2725" width="5.44141" height="5.70605" filterUnits="userSpaceOnUse" color-interpolation-filters="sRGB"><feFlood flood-opacity="0" result="BackgroundImageFix"/><feBlend mode="normal" in="SourceGraphic" in2="BackgroundImageFix" result="shape"/><feColorMatrix in="SourceAlpha" type="matrix" values="0 0 0 0 0 0 0 0 0 0 0 0 0 0 0 0 0 0 127 0" result="hardAlpha"/><feOffset dx="0.46875" dy="0.46875"/><feGaussianBlur stdDeviation="0.703125"/><feComposite in2="hardAlpha" operator="arithmetic" k2="-1" k3="1"/><feColorMatrix type="matrix" values="0 0 0 0 0.121569 0 0 0 0 0.121569 0 0 0 0 0.117647 0 0 0 0.05 0"/><feBlend mode="normal" in2="shape" result="effect1_innerShadow_2483_15959"/><feColorMatrix in="SourceAlpha" type="matrix" values="0 0 0 0 0 0 0 0 0 0 0 0 0 0 0 0 0 0 127 0" result="hardAlpha"/><feOffset dx="-0.46875" dy="-0.46875"/><feGaussianBlur stdDeviation="0.703125"/><feComposite in2="hardAlpha" operator="arithmetic" k2="-1" k3="1"/><feColorMatrix type="matrix" values="0 0 0 0 0.121569 0 0 0 0 0.121569 0 0 0 0 0.117647 0 0 0 0.05 0"/><feBlend mode="normal" in2="effect1_innerShadow_2483_15959" result="effect2_innerShadow_2483_15959"/><feColorMatrix in="SourceAlpha" type="matrix" values="0 0 0 0 0 0 0 0 0 0 0 0 0 0 0 0 0 0 127 0" result="hardAlpha"/><feOffset dx="0.46875" dy="0.46875"/><feGaussianBlur stdDeviation="0.9375"/><feComposite in2="hardAlpha" operator="arithmetic" k2="-1" k3="1"/><feColorMatrix type="matrix" values="0 0 0 0 0.121569 0 0 0 0 0.121569 0 0 0 0 0.117647 0 0 0 0.05 0"/><feBlend mode="normal" in2="effect2_innerShadow_2483_15959" result="effect3_innerShadow_2483_15959"/></filter><filter id="filter2_dii_2483_15959" x="9.01166" y="12.0126" width="31.3378" height="20.1504" filterUnits="userSpaceOnUse" color-interpolation-filters="sRGB"><feFlood flood-opacity="0" result="BackgroundImageFix"/><feColorMatrix in="SourceAlpha" type="matrix" values="0 0 0 0 0 0 0 0 0 0 0 0 0 0 0 0 0 0 127 0" result="hardAlpha"/><feOffset dx="0.37512" dy="0.562681"/><feGaussianBlur stdDeviation="0.200064"/><feComposite in2="hardAlpha" operator="out"/><feColorMatrix type="matrix" values="0 0 0 0 0.394602 0 0 0 0 0.394602 0 0 0 0 0.394602 0 0 0 0.08 0"/><feBlend mode="normal" in2="BackgroundImageFix" result="effect1_dropShadow_2483_15959"/><feBlend mode="normal" in="SourceGraphic" in2="effect1_dropShadow_2483_15959" result="shape"/><feColorMatrix in="SourceAlpha" type="matrix" values="0 0 0 0 0 0 0 0 0 0 0 0 0 0 0 0 0 0 127 0" result="hardAlpha"/><feOffset dx="0.200064" dy="0.200064"/><feGaussianBlur stdDeviation="0.200064"/><feComposite in2="hardAlpha" operator="arithmetic" k2="-1" k3="1"/><feColorMatrix type="matrix" values="0 0 0 0 0.109684 0 0 0 0 0.0922738 0 0 0 0 0.0922738 0 0 0 0.1 0"/><feBlend mode="normal" in2="shape" result="effect2_innerShadow_2483_15959"/><feColorMatrix in="SourceAlpha" type="matrix" values="0 0 0 0 0 0 0 0 0 0 0 0 0 0 0 0 0 0 127 0" result="hardAlpha"/><feOffset dx="-0.18756" dy="-0.18756"/><feGaussianBlur stdDeviation="0.200064"/><feComposite in2="hardAlpha" operator="arithmetic" k2="-1" k3="1"/><feColorMatrix type="matrix" values="0 0 0 0 0 0 0 0 0 0 0 0 0 0 0 0 0 0 0.05 0"/><feBlend mode="normal" in2="effect2_innerShadow_2483_15959" result="effect3_innerShadow_2483_15959"/></filter></defs></svg>

<svg fill="none" viewBox="0 0 49 74"><path fill="#DADADA" d="M0 0h49v74H0z"/><path fill="white" d="M844.699 91.2h-1440v-109h1440z"/><path fill="black" d="M5.635 62.756v1.188h1.956v-4.5h.804v4.5h1.944v-1.188H9.08v-.72h1.26v-1.308H9.02v-.744h2.1v4.704H8.395v1.056h2.688v.732c-.432.876-1.152 1.62-2.136 2.244q1.188.54 2.772.864l-.312.804c-1.308-.276-2.424-.672-3.348-1.176-1.008.48-2.208.888-3.612 1.2l-.432-.768c1.248-.24 2.328-.552 3.228-.936-.864-.612-1.512-1.344-1.968-2.184h-.504v-.78h2.82v-1.056H4.843v-4.332a7 7 0 0 0 1.788-.756l.492.636c-.408.216-.912.432-1.488.648v1.152h1.308v.72zm.528 3.768q.702 1.026 1.944 1.764c.9-.504 1.584-1.092 2.04-1.764zM2.18 70.292H1.051l-.18-.816c.36.036.696.06 1.008.06.288 0 .444-.168.444-.492v-2.916c-.456.168-.9.324-1.356.468l-.192-.816c.528-.144 1.044-.3 1.548-.492v-2.76H.991V61.7h1.332v-2.244h.84V61.7H4.28v.828H3.163v2.424c.408-.18.816-.384 1.212-.6v.84c-.396.204-.804.396-1.212.588v3.48c0 .684-.336 1.032-.984 1.032m11.532-9.948h4.044v-.948h.888v.948h4.044v.792h-4.044v1.044h4.536v2.196h-.84v-1.44h-4.584l.66.324a15 15 0 0 1-2.244 1.488c1.104-.024 2.004-.048 2.676-.096.42-.288.852-.588 1.284-.9l.696.468a17 17 0 0 1-4.56 2.436c1.56-.048 3.108-.132 4.668-.24-.264-.288-.54-.564-.828-.852l.624-.396c.876.852 1.548 1.596 2.016 2.244l-.648.468a10 10 0 0 0-.648-.864c-.972.06-1.884.12-2.748.168v2.292c0 .6-.336.912-.984.912h-1.092l-.18-.804a9 9 0 0 0 .984.06c.264 0 .408-.132.408-.372V67.22c-1.32.06-2.532.108-3.636.132l-.168-.78c.252.012.504.024.744.024.984-.276 1.992-.708 3.048-1.308-.816.024-1.74.06-2.784.084l-.168-.66c.18-.036.36-.108.54-.204.78-.444 1.524-.972 2.22-1.572H14.06v1.428h-.84V62.18h4.536v-1.044h-4.044zm6.264 7.476a17.5 17.5 0 0 1 3.396 1.656l-.444.696a16.6 16.6 0 0 0-3.384-1.716zm-3.78-.024.504.564c-.9.72-2.028 1.308-3.384 1.776l-.36-.768c1.308-.396 2.388-.924 3.24-1.572m13.356-7.68v7.308c.276-.084.54-.168.804-.252v.816q-2.34.756-5.436 1.404l-.24-.84c.288-.06.576-.12.864-.168v-8.268zm-3.156 8.088a61 61 0 0 0 2.316-.552v-1.656h-2.316zm0-2.988h2.316v-1.812h-2.316zm0-2.604h2.316v-1.704h-2.316zm5.34-3.156h.864v2.4h2.652c0 3.744-.06 6.048-.18 6.936-.12.984-.72 1.488-1.8 1.488q-.288 0-1.008-.036l-.204-.768c.42.024.78.048 1.092.048.636 0 1.008-.36 1.104-1.056.072-.624.12-2.556.144-5.772h-1.8v.168c-.036 3.456-.888 5.988-2.556 7.584l-.648-.564q2.304-2.178 2.34-7.02v-.168h-1.488v-.84h1.488zm14.496.048.42.732a24.5 24.5 0 0 1-3.792.66v2.028h3.828v.84H42.86v1.968h4.728v.828H42.86v2.652c0 .72-.384 1.092-1.128 1.092h-1.86l-.192-.84c.612.024 1.2.048 1.752.048.36 0 .552-.18.552-.516V66.56h-5.16v-.828h5.16v-1.968H37.82v-.84h4.164v-1.956a55 55 0 0 1-4.14.156l-.264-.78c3.48 0 6.36-.288 8.652-.84"/><rect width="48.2" height="48.2" x=".099" y=".1" fill="#F6F6F6" rx="10.1"/><rect width="48.2" height="48.2" x=".099" y=".1" stroke="#D4D4D8" stroke-width=".2" rx="10.1"/><g filter="url(#a)"><path fill="#D9D9D9" d="m32.56 34.143-2.739-2.8a6.54 6.54 0 0 0 1.058-3.575c0-3.614-2.911-6.543-6.504-6.543s-6.504 2.929-6.504 6.543 2.912 6.544 6.504 6.544a6.46 6.46 0 0 0 3.396-.962l2.75 2.81c.28.288.649.43 1.02.43a1.4 1.4 0 0 0 1.004-.413c.563-.559.57-1.47.015-2.037zm-8.185-1.486c-2.678 0-4.857-2.191-4.857-4.886s2.179-4.887 4.857-4.887 4.857 2.192 4.857 4.887-2.178 4.886-4.857 4.886"/></g><g filter="url(#b)"><path fill="#D9D9D9" d="M20.387 27.848c0-2.216 1.672-4.107 3.841-4.107a.662.662 0 1 1 0 1.325c-1.34 0-2.517 1.195-2.517 2.782a.662.662 0 1 1-1.324 0"/></g><g filter="url(#c)"><path fill="#919191" d="M39.575 25.002c0 1.276-.356 2.513-1.124 3.545-.925 1.236-2.349 2.097-3.833 2.473-.78.196-1.545.18-2.341.18a.583.583 0 0 1-.536-.8c.852-2.261.592-4.998-.773-7.023-2.832-4.705-10.315-4.697-13.148 0-1.364 2.017-1.62 4.766-.772 7.023a.583.583 0 0 1-.536.8h-1.577c-6.351.065-7.83-8.65-2.395-10.9.44-.182.743-.61.804-1.082.336-2.613 3.093-4.42 5.656-3.856.494.109 1.031-.057 1.344-.455 3.783-4.816 12.635-2.874 13.822 3.206.088.453.43.822.873.95 2.624.756 4.536 3.129 4.536 5.939"/></g><defs><filter id="a" width="16.039" height="16.303" x="17.402" y="20.756" color-interpolation-filters="sRGB" filterUnits="userSpaceOnUse"><feFlood flood-opacity="0" result="BackgroundImageFix"/><feBlend in="SourceGraphic" in2="BackgroundImageFix" mode="normal" result="shape"/><feColorMatrix in="SourceAlpha" result="hardAlpha" type="matrix" values="0 0 0 0 0 0 0 0 0 0 0 0 0 0 0 0 0 0 127 0"/><feOffset dx=".469" dy=".469"/><feGaussianBlur stdDeviation=".703"/><feComposite in2="hardAlpha" k2="-1" k3="1" operator="arithmetic"/><feColorMatrix type="matrix" values="0 0 0 0 0.121569 0 0 0 0 0.121569 0 0 0 0 0.117647 0 0 0 0.05 0"/><feBlend in2="shape" mode="normal" result="effect1_innerShadow_2483_15959"/><feColorMatrix in="SourceAlpha" result="hardAlpha" type="matrix" values="0 0 0 0 0 0 0 0 0 0 0 0 0 0 0 0 0 0 127 0"/><feOffset dx="-.469" dy="-.469"/><feGaussianBlur stdDeviation=".703"/><feComposite in2="hardAlpha" k2="-1" k3="1" operator="arithmetic"/><feColorMatrix type="matrix" values="0 0 0 0 0.121569 0 0 0 0 0.121569 0 0 0 0 0.117647 0 0 0 0.05 0"/><feBlend in2="effect1_innerShadow_2483_15959" mode="normal" result="effect2_innerShadow_2483_15959"/><feColorMatrix in="SourceAlpha" result="hardAlpha" type="matrix" values="0 0 0 0 0 0 0 0 0 0 0 0 0 0 0 0 0 0 127 0"/><feOffset dx=".469" dy=".469"/><feGaussianBlur stdDeviation=".938"/><feComposite in2="hardAlpha" k2="-1" k3="1" operator="arithmetic"/><feColorMatrix type="matrix" values="0 0 0 0 0.121569 0 0 0 0 0.121569 0 0 0 0 0.117647 0 0 0 0.05 0"/><feBlend in2="effect2_innerShadow_2483_15959" mode="normal" result="effect3_innerShadow_2483_15959"/></filter><filter id="b" width="5.441" height="5.706" x="19.918" y="23.273" color-interpolation-filters="sRGB" filterUnits="userSpaceOnUse"><feFlood flood-opacity="0" result="BackgroundImageFix"/><feBlend in="SourceGraphic" in2="BackgroundImageFix" mode="normal" result="shape"/><feColorMatrix in="SourceAlpha" result="hardAlpha" type="matrix" values="0 0 0 0 0 0 0 0 0 0 0 0 0 0 0 0 0 0 127 0"/><feOffset dx=".469" dy=".469"/><feGaussianBlur stdDeviation=".703"/><feComposite in2="hardAlpha" k2="-1" k3="1" operator="arithmetic"/><feColorMatrix type="matrix" values="0 0 0 0 0.121569 0 0 0 0 0.121569 0 0 0 0 0.117647 0 0 0 0.05 0"/><feBlend in2="shape" mode="normal" result="effect1_innerShadow_2483_15959"/><feColorMatrix in="SourceAlpha" result="hardAlpha" type="matrix" values="0 0 0 0 0 0 0 0 0 0 0 0 0 0 0 0 0 0 127 0"/><feOffset dx="-.469" dy="-.469"/><feGaussianBlur stdDeviation=".703"/><feComposite in2="hardAlpha" k2="-1" k3="1" operator="arithmetic"/><feColorMatrix type="matrix" values="0 0 0 0 0.121569 0 0 0 0 0.121569 0 0 0 0 0.117647 0 0 0 0.05 0"/><feBlend in2="effect1_innerShadow_2483_15959" mode="normal" result="effect2_innerShadow_2483_15959"/><feColorMatrix in="SourceAlpha" result="hardAlpha" type="matrix" values="0 0 0 0 0 0 0 0 0 0 0 0 0 0 0 0 0 0 127 0"/><feOffset dx=".469" dy=".469"/><feGaussianBlur stdDeviation=".938"/><feComposite in2="hardAlpha" k2="-1" k3="1" operator="arithmetic"/><feColorMatrix type="matrix" values="0 0 0 0 0.121569 0 0 0 0 0.121569 0 0 0 0 0.117647 0 0 0 0.05 0"/><feBlend in2="effect2_innerShadow_2483_15959" mode="normal" result="effect3_innerShadow_2483_15959"/></filter><filter id="c" width="31.338" height="20.15" x="9.012" y="12.013" color-interpolation-filters="sRGB" filterUnits="userSpaceOnUse"><feFlood flood-opacity="0" result="BackgroundImageFix"/><feColorMatrix in="SourceAlpha" result="hardAlpha" type="matrix" values="0 0 0 0 0 0 0 0 0 0 0 0 0 0 0 0 0 0 127 0"/><feOffset dx=".375" dy=".563"/><feGaussianBlur stdDeviation=".2"/><feComposite in2="hardAlpha" operator="out"/><feColorMatrix type="matrix" values="0 0 0 0 0.394602 0 0 0 0 0.394602 0 0 0 0 0.394602 0 0 0 0.08 0"/><feBlend in2="BackgroundImageFix" mode="normal" result="effect1_dropShadow_2483_15959"/><feBlend in="SourceGraphic" in2="effect1_dropShadow_2483_15959" mode="normal" result="shape"/><feColorMatrix in="SourceAlpha" result="hardAlpha" type="matrix" values="0 0 0 0 0 0 0 0 0 0 0 0 0 0 0 0 0 0 127 0"/><feOffset dx=".2" dy=".2"/><feGaussianBlur stdDeviation=".2"/><feComposite in2="hardAlpha" k2="-1" k3="1" operator="arithmetic"/><feColorMatrix type="matrix" values="0 0 0 0 0.109684 0 0 0 0 0.0922738 0 0 0 0 0.0922738 0 0 0 0.1 0"/><feBlend in2="shape" mode="normal" result="effect2_innerShadow_2483_15959"/><feColorMatrix in="SourceAlpha" result="hardAlpha" type="matrix" values="0 0 0 0 0 0 0 0 0 0 0 0 0 0 0 0 0 0 127 0"/><feOffset dx="-.188" dy="-.188"/><feGaussianBlur stdDeviation=".2"/><feComposite in2="hardAlpha" k2="-1" k3="1" operator="arithmetic"/><feColorMatrix type="matrix" values="0 0 0 0 0 0 0 0 0 0 0 0 0 0 0 0 0 0 0.05 0"/><feBlend in2="effect2_innerShadow_2483_15959" mode="normal" result="effect3_innerShadow_2483_15959"/></filter></defs></svg>
